client/public/favicon.svg

<svg id="eqwiK0ndMYo1" xmlns="http://www.w3.org/2000/svg" xmlns:xlink="http://www.w3.org/1999/xlink" viewBox="0 0 35 28" shape-rendering="geometricPrecision" text-rendering="geometricPrecision" project-id="3073bf7464ab4721a8de8f124d5c21a0" export-id="2ed50afe123a465aa744e595530a7d2b" cached="false"><path d="M8.63281,0L15.8667,6.18025c.4295.36691.6771.90534.6771,1.47241v4.65774L9.30979,6.13018c-.42946-.36691-.67698-.90534-.67698-1.47245v-4.65773Z" fill="#f97a00"/><path d="M8.63281,27.9999l7.23389-6.1803c.4295-.3669.6771-.9053.6771-1.4724v-4.6577L9.30979,21.8697c-.42946.3669-.67698.9053-.67698,1.4724v4.6578Z" fill="#f97a00"/><path d="M0,6.5166l7.13558,6.0622c.34594.2939.784.4551,1.2367.4551h5.75452L7.00881,6.97314c-.3462-.29479-.78494-.45654-1.23835-.45654L0,6.5166Z" fill="#f97a00"/><path d="M0,21.4822l7.09169-6.0587c.34657-.2961.78624-.4587,1.24076-.4587h5.81155L7.00839,21.027c-.34597.2939-.78405.4552-1.23673.4552h-5.77166Z" fill="#f97a00"/><path d="M26.3719,0l-7.234,6.18025c-.4294.36691-.677.90534-.677,1.47241v4.65774l7.234-6.18022c.4294-.36691.677-.90534.677-1.47245v-4.65773Z" fill="#f97a00"/><path d="M26.3719,27.9999l-7.234-6.1803c-.4294-.3669-.677-.9053-.677-1.4724v-4.6577l7.234,6.1802c.4294.3669.677.9053.677,1.4724v4.6578Z" fill="#f97a00"/><path d="M35.0019,6.5166l-7.1356,6.0622c-.3459.2939-.7841.4551-1.2367.4551h-5.7546l7.1181-6.06076c.3461-.29479.7849-.45654,1.2383-.45654h5.7705Z" fill="#f97a00"/><path d="M34.9994,21.4822l-7.0917-6.0587c-.3465-.2961-.7863-.4587-1.2408-.4587h-5.8114L27.991,21.027c.346.2939.784.4552,1.2367.4552h5.7717Z" fill="#f97a00"/></svg>

<svg width="35" height="28" viewBox="0 0 35 28" fill="none" xmlns="http://www.w3.org/2000/svg">
<path d="M8.63281 0L15.8667 6.18025C16.2962 6.54716 16.5438 7.08559 16.5438 7.65266V12.3104L9.30979 6.13018C8.88033 5.76327 8.63281 5.22484 8.63281 4.65773V0Z" fill="#5044E5"/>
<path d="M8.63281 27.9999L15.8667 21.8196C16.2962 21.4527 16.5438 20.9143 16.5438 20.3472V15.6895L9.30979 21.8697C8.88033 22.2366 8.63281 22.775 8.63281 23.3421V27.9999Z" fill="#5044E5"/>
<path d="M0 6.5166L7.13558 12.5788C7.48152 12.8727 7.91958 13.0339 8.37228 13.0339H14.1268L7.00881 6.97314C6.66261 6.67835 6.22387 6.5166 5.77046 6.5166H0Z" fill="#5044E5"/>
<path d="M0 21.4822L7.09169 15.4235C7.43826 15.1274 7.87793 14.9648 8.33245 14.9648H14.144L7.00839 21.027C6.66242 21.3209 6.22434 21.4822 5.77166 21.4822H0Z" fill="#5044E5"/>
<path d="M26.3719 0L19.1379 6.18025C18.7085 6.54716 18.4609 7.08559 18.4609 7.65266V12.3104L25.6949 6.13018C26.1243 5.76327 26.3719 5.22484 26.3719 4.65773V0Z" fill="#5044E5"/>
<path d="M26.3719 27.9999L19.1379 21.8196C18.7085 21.4527 18.4609 20.9143 18.4609 20.3472V15.6895L25.6949 21.8697C26.1243 22.2366 26.3719 22.775 26.3719 23.3421V27.9999Z" fill="#5044E5"/>
<path d="M35.0019 6.5166L27.8663 12.5788C27.5204 12.8727 27.0822 13.0339 26.6296 13.0339H20.875L27.9931 6.97314C28.3392 6.67835 28.778 6.5166 29.2314 6.5166H35.0019Z" fill="#5044E5"/>
<path d="M34.9994 21.4822L27.9077 15.4235C27.5612 15.1274 27.1214 14.9648 26.6669 14.9648H20.8555L27.991 21.027C28.337 21.3209 28.775 21.4822 29.2277 21.4822H34.9994Z" fill="#5044E5"/>
</svg>
